breeze-extended-cinnamon/status/symbolic/network-wireless-no-route-symbolic.svg

<?xml version="1.0" encoding="UTF-8" standalone="no"?>
<!-- Created with Inkscape (http://www.inkscape.org/) -->

<svg
   id="svg7384"
   height="16"
   width="16"
   version="1.1"
   sodipodi:docname="network-wireless-no-route-symbolic.svg"
   inkscape:version="1.1.1 (3bf5ae0d25, 2021-09-20, custom)"
   xmlns:inkscape="http://www.inkscape.org/namespaces/inkscape"
   xmlns:sodipodi="http://sodipodi.sourceforge.net/DTD/sodipodi-0.dtd"
   xmlns="http://www.w3.org/2000/svg"
   xmlns:svg="http://www.w3.org/2000/svg"
   xmlns:rdf="http://www.w3.org/1999/02/22-rdf-syntax-ns#"
   xmlns:cc="http://creativecommons.org/ns#"
   xmlns:dc="http://purl.org/dc/elements/1.1/">
  <defs
     id="defs14" />
  <sodipodi:namedview
     pagecolor="#ffffff"
     bordercolor="#666666"
     borderopacity="1"
     objecttolerance="10"
     gridtolerance="10"
     guidetolerance="10"
     inkscape:pageopacity="0"
     inkscape:pageshadow="2"
     inkscape:window-width="1920"
     inkscape:window-height="1019"
     id="namedview12"
     showgrid="true"
     inkscape:zoom="36.32"
     inkscape:cx="6.7731278"
     inkscape:cy="8.0671806"
     inkscape:window-x="0"
     inkscape:window-y="0"
     inkscape:window-maximized="1"
     inkscape:current-layer="svg7384"
     inkscape:pagecheckerboard="0">
    <inkscape:grid
       type="xygrid"
       id="grid4508" />
  </sodipodi:namedview>
  <metadata
     id="metadata90">
    <rdf:RDF>
      <cc:Work
         rdf:about="">
        <dc:format>image/svg+xml</dc:format>
        <dc:type
           rdf:resource="http://purl.org/dc/dcmitype/StillImage" />
        <dc:title>Gnome Symbolic Icon Theme</dc:title>
      </cc:Work>
    </rdf:RDF>
  </metadata>
  <title
     id="title9167">Gnome Symbolic Icon Theme</title>
  <path
     inkscape:connector-curvature="0"
     style="color:#31363b;opacity:0.5;fill:#232627;fill-opacity:1;fill-rule:evenodd;stroke:none;stroke-width:1px;stroke-linecap:butt;stroke-linejoin:miter;stroke-opacity:1"
     d="M 13.443359,7 A 2.5,2.5 0 0 0 11,8.9882812 h 1.035156 A 1.5,1.5 0 0 1 13.443359,8 a 1.5,1.5 0 0 1 1.5,1.5 1.5,1.5 0 0 1 -1.5,1.5 1.5,1.5 0 0 1 -0.5,-0.08789 V 11.800781 11.945312 14 h 1 v -2.050781 a 2.5,2.5 0 0 0 2,-2.449219 2.5,2.5 0 0 0 -2.5,-2.5 z m -0.5,8 v 1 h 1 v -1 z"
     id="path4486" />
  <path
     id="path4477-3"
     style="color:#31363b;opacity:0.5;fill:#242628;fill-opacity:0.992506;stroke:none"
     d="m 8.0117188,2.2070312 c -3.0469997,2e-7 -5.7988596,1.2265943 -7.78710942,3.2148438 L 0.93164062,6.1289062 C 2.7391404,4.3213963 5.241719,3.2070322 8.0117188,3.2070312 c 2.7700002,3e-7 5.2706162,1.1143643 7.0781252,2.921875 L 15.798828,5.421875 C 13.810578,3.4336241 11.058719,2.2070314 8.0117188,2.2070312 Z m 0.033203,3.9140626 c -1.9389999,-2e-7 -3.6898284,0.7816254 -4.9550781,2.046875 l 0.7089843,0.7089843 c 1.0845,-1.0844993 2.5840939,-1.7558594 4.2460938,-1.7558593 0.88683,1e-7 1.7264619,0.1940397 2.4824221,0.5371093 0.182211,-0.2953274 0.40733,-0.5619152 0.667968,-0.7910156 C 10.249148,6.3916277 9.1795384,6.1210937 8.0449219,6.1210938 Z M 8.0234375,9.609375 C 7.1129604,9.6078759 6.20037,9.9539616 5.5039062,10.646484 l 0.7089844,0.708985 c 1.0013418,-0.993436 2.6168477,-0.992555 3.6152344,0.0039 l 0.00195,0.0039 0.4648439,-0.464843 C 10.210453,10.70051 10.144418,10.495213 10.097656,10.285156 9.4798897,9.8390028 8.7527181,9.6105758 8.0234375,9.609375 Z M 8,13 c -0.5522847,0 -1,0.447715 -1,1 0,0.552285 0.4477153,1 1,1 0.5522847,0 1,-0.447715 1,-1 0,-0.552285 -0.4477153,-1 -1,-1 z"
     sodipodi:nodetypes="sccsccssccsccssccccccssssss" />
</svg>

<?xml version="1.0" encoding="UTF-8" standalone="no"?>
<!-- Created with Inkscape (http://www.inkscape.org/) -->

<svg
   id="svg7384"
   height="16"
   width="16"
   version="1.1"
   sodipodi:docname="network-wireless-no-route-symbolic.svg"
   inkscape:version="1.1.1 (3bf5ae0d25, 2021-09-20, custom)"
   xmlns:inkscape="http://www.inkscape.org/namespaces/inkscape"
   xmlns:sodipodi="http://sodipodi.sourceforge.net/DTD/sodipodi-0.dtd"
   xmlns="http://www.w3.org/2000/svg"
   xmlns:svg="http://www.w3.org/2000/svg"
   xmlns:rdf="http://www.w3.org/1999/02/22-rdf-syntax-ns#"
   xmlns:cc="http://creativecommons.org/ns#"
   xmlns:dc="http://purl.org/dc/elements/1.1/">
  <defs
     id="defs14" />
  <sodipodi:namedview
     pagecolor="#ffffff"
     bordercolor="#666666"
     borderopacity="1"
     objecttolerance="10"
     gridtolerance="10"
     guidetolerance="10"
     inkscape:pageopacity="0"
     inkscape:pageshadow="2"
     inkscape:window-width="1920"
     inkscape:window-height="1019"
     id="namedview12"
     showgrid="true"
     inkscape:zoom="36.32"
     inkscape:cx="7.3237886"
     inkscape:cy="8.0396476"
     inkscape:window-x="0"
     inkscape:window-y="0"
     inkscape:window-maximized="1"
     inkscape:current-layer="svg7384"
     inkscape:pagecheckerboard="0">
    <inkscape:grid
       type="xygrid"
       id="grid4508" />
  </sodipodi:namedview>
  <metadata
     id="metadata90">
    <rdf:RDF>
      <cc:Work
         rdf:about="">
        <dc:format>image/svg+xml</dc:format>
        <dc:type
           rdf:resource="http://purl.org/dc/dcmitype/StillImage" />
        <dc:title>Gnome Symbolic Icon Theme</dc:title>
      </cc:Work>
    </rdf:RDF>
  </metadata>
  <title
     id="title9167">Gnome Symbolic Icon Theme</title>
  <path
     inkscape:connector-curvature="0"
     style="color:#31363b;opacity:0.5;fill:#232627;fill-opacity:1;fill-rule:evenodd;stroke:none;stroke-width:1px;stroke-linecap:butt;stroke-linejoin:miter;stroke-opacity:1"
     d="M 13.443359,7 A 2.5,2.5 0 0 0 11,8.9882812 h 1.035156 A 1.5,1.5 0 0 1 13.443359,8 a 1.5,1.5 0 0 1 1.5,1.5 1.5,1.5 0 0 1 -1.5,1.5 1.5,1.5 0 0 1 -0.5,-0.08789 V 11.800781 11.945312 14 h 1 v -2.050781 a 2.5,2.5 0 0 0 2,-2.449219 2.5,2.5 0 0 0 -2.5,-2.5 z m -0.5,8 v 1 h 1 v -1 z"
     id="path4486" />
  <path
     id="path4477-3"
     style="color:#31363b;opacity:0.5;fill:#242628;fill-opacity:0.992506;stroke:none"
     d="M 8.0117188 2.2070312 C 4.9647191 2.2070314 2.2128592 3.4336255 0.22460938 5.421875 L 0.93164062 6.1289062 C 2.7391404 4.3213963 5.241719 3.2070322 8.0117188 3.2070312 C 10.781719 3.2070315 13.282335 4.3213955 15.089844 6.1289062 L 15.798828 5.421875 C 13.810578 3.4336241 11.058719 2.2070314 8.0117188 2.2070312 z M 8.0449219 6.1210938 C 6.105922 6.1210936 4.3550935 6.9027192 3.0898438 8.1679688 L 3.7988281 8.8769531 C 4.8833281 7.7924538 6.382922 7.1210937 8.0449219 7.1210938 C 8.9317519 7.1210939 9.7713838 7.3151335 10.527344 7.6582031 A 3.5 3.5 0 0 1 11.195312 6.8671875 C 10.249148 6.3916277 9.1795384 6.1210937 8.0449219 6.1210938 z M 8.0234375 9.609375 C 7.1129604 9.6078759 6.20037 9.9539616 5.5039062 10.646484 L 6.2128906 11.355469 C 7.2142324 10.362033 8.8297383 10.362914 9.828125 11.359375 L 9.8300781 11.363281 L 10.294922 10.898438 A 3.5 3.5 0 0 1 10.097656 10.285156 C 9.4798897 9.8390028 8.7527181 9.6105758 8.0234375 9.609375 z M 8 12.167969 A 1 1 0 0 0 7 13.167969 A 1 1 0 0 0 8 14.167969 A 1 1 0 0 0 9 13.167969 A 1 1 0 0 0 8 12.167969 z " />
</svg>
